src/assets/filled/MedalStar.svg

<svg width="24" height="24" viewBox="0 0 24 24"  xmlns="http://www.w3.org/2000/svg">
<path d="M21.25 18.4701L19.6 18.8601C19.23 18.9501 18.94 19.2301 18.86 19.6001L18.51 21.0701C18.32 21.8701 17.3 22.1201 16.77 21.4901L13.78 18.0501C13.54 17.7701 13.67 17.3301 14.03 17.2401C15.8 16.8101 17.39 15.8201 18.56 14.4101C18.75 14.1801 19.09 14.1501 19.3 14.3601L21.52 16.5801C22.28 17.3401 22.01 18.2901 21.25 18.4701Z" />
<path d="M2.69992 18.4701L4.34992 18.8601C4.71992 18.9501 5.00992 19.2301 5.08992 19.6001L5.43992 21.0701C5.62992 21.8701 6.64992 22.1201 7.17992 21.4901L10.1699 18.0501C10.4099 17.7701 10.2799 17.3301 9.91992 17.2401C8.14992 16.8101 6.55992 15.8201 5.38992 14.4101C5.19992 14.1801 4.85992 14.1501 4.64992 14.3601L2.42992 16.5801C1.66992 17.3401 1.93992 18.2901 2.69992 18.4701Z" />
<path d="M12 2C8.13 2 5 5.13 5 9C5 10.45 5.43 11.78 6.17 12.89C7.25 14.49 8.96 15.62 10.95 15.91C11.29 15.97 11.64 16 12 16C12.36 16 12.71 15.97 13.05 15.91C15.04 15.62 16.75 14.49 17.83 12.89C18.57 11.78 19 10.45 19 9C19 5.13 15.87 2 12 2ZM15.06 8.78L14.23 9.61C14.09 9.75 14.01 10.02 14.06 10.22L14.3 11.25C14.49 12.06 14.06 12.38 13.34 11.95L12.34 11.36C12.16 11.25 11.86 11.25 11.68 11.36L10.68 11.95C9.96 12.37 9.53 12.06 9.72 11.25L9.96 10.22C10 10.03 9.93 9.75 9.79 9.61L8.94 8.78C8.45 8.29 8.61 7.8 9.29 7.69L10.36 7.51C10.54 7.48 10.75 7.32 10.83 7.16L11.42 5.98C11.74 5.34 12.26 5.34 12.58 5.98L13.17 7.16C13.25 7.32 13.46 7.48 13.65 7.51L14.72 7.69C15.39 7.8 15.55 8.29 15.06 8.78Z" />
</svg>

<?xml version="1.0" encoding="UTF-8"?>
<svg width="24" height="24" viewBox="0 0 24 24" xmlns="http://www.w3.org/2000/svg">
 <path d="m21.25 18.47-1.65 0.39c-0.37 0.09-0.66 0.37-0.74 0.74l-0.35 1.47c-0.19 0.8-1.21 1.05-1.74 0.42l-2.99-3.44c-0.24-0.28-0.11-0.72 0.25-0.81 1.77-0.43 3.36-1.42 4.53-2.83 0.19-0.23 0.53-0.26 0.74-0.05l2.22 2.22c0.76 0.76 0.49 1.71-0.27 1.89z"/>
 <path d="m2.6999 18.47 1.65 0.39c0.37 0.09 0.66 0.37 0.74 0.74l0.35 1.47c0.19 0.8 1.21 1.05 1.74 0.42l2.99-3.44c0.24-0.28 0.11-0.72-0.24998-0.81-1.77-0.43-3.36-1.42-4.53-2.83-0.19-0.23-0.53-0.26-0.74-0.05l-2.22 2.22c-0.76 0.76-0.49 1.71 0.27 1.89z"/>
 <path d="m12 2c-3.87 0-7 3.13-7 7 0 1.45 0.43 2.78 1.17 3.89 1.08 1.6 2.79 2.73 4.78 3.02 0.34 0.06 0.69 0.09 1.05 0.09s0.71-0.03 1.05-0.09c1.99-0.29 3.7-1.42 4.78-3.02 0.74-1.11 1.17-2.44 1.17-3.89 0-3.87-3.13-7-7-7zm3.06 6.78-0.83 0.83c-0.14 0.14-0.22 0.41-0.17 0.61l0.24 1.03c0.19 0.81-0.24 1.13-0.96 0.7l-1-0.59c-0.18-0.11-0.48-0.11-0.66 0l-1 0.59c-0.72 0.42-1.15 0.11-0.96-0.7l0.24-1.03c0.04-0.19-0.03-0.47-0.17-0.61l-0.85-0.83c-0.49-0.49-0.33-0.98 0.35-1.09l1.07-0.18c0.18-0.03 0.39-0.19 0.47-0.35l0.59-1.18c0.32-0.64 0.84-0.64 1.16 0l0.59 1.18c0.08 0.16 0.29 0.32 0.48 0.35l1.07 0.18c0.67 0.11 0.83 0.6 0.34 1.09z"/>
</svg>
